X: 35392
T: Ross's
R: reel
M: 4/4
K: Gmajor
a3 g f2 e2|dedc B2 AG|FDFA d2 dc|BGBd g2 b2|
a3 g f2 e2|dedc B2 AG|FGAB cdef|g2 b2 g2:|
Bddd eddd|Bdgd bdgd|Bddd eddd|Bdgd bdgd|
^cddd eddd|^cdfd ad=c'd|^cdfd ad=c'd|bdad g2:|
a3 g f2 e2|dedc B2 AG|FDFA d^cd=c|BGBd gBbB|
a3 g f2 e2|dedc B/c/B AG|FGAB cdef|gfga g2:|
Bd^c/d/d edcd|Bdgd bdgd|B/c/B^cd edcd|Bdgd bdgd|
c/d/B^cd edcd|^cdfd ad=c'd|^cdfd ad=c'd|b/c'/b a/b/a g2:|

